X:19005
T:Xiraldilla (CT 221)
R:Xiraldilla
C:Tradicional
S:Música Tradicional Asturiana, (C) Tello & Tito. Asturies, 2001.
S:http://pagina.de/MusTradAst <telloytito@asturies.org>
N:Estribillo bailable para apliar a una melodía propia para la rueda de xiraldilla, dictado por Manuel Fernández solís, de vinticuatro años, de Uviéu, quien dice lo aprendió en La Pola Siero.
O:La Pola Siero (Siero)
A:Asturies
Z:Cancioneru de Torner 221
M:3/4
L:1/8
Q:1/4=184
W:Aquella la de la saya,
W:la de la saya,
W:la del mandil,
W:aquella  la de la saya,
W:la de la saya,
W:me gusta amí.
W:
W:Aquella la de la saya,
W:la de la saya,
W:la del faldón,
W:aquella la de la saya,
W:la de la saya,
W:la quiero yo.
K:G
G2|c2 cB AG|c2 cB AG|c2 cB AG|A4 A2|d2 dc BA|c2 cB AG|B2 BA GF|G4||


